X: 43492
T: Yellow Was The Color Of Her Dress
R: polka
M: 2/4
K: Eminor
E>E GE|GA B2|cB/A/ GF|BA/G/ FD|
E>F GE|GA B2|cB/A/ GF|1 E2ED:|2 E2EF||
|:GF/E/ DG|Ad B2|cB/A/ GE|FB GE|
GF/E/ DG|AF GB|dc BA/G/|AF E2:|

